X: 2
T: The Sea Wife  v.2
C: music: Gordon Bok 1987
C: poem: Rudyard Kipling
%D: 1987
F: http://ancients.sudburymuster.org/mus/med/pdf/seawifewalkerC0.pdf
Z: 2020 John Chambers <jc:trillian.mit.edu>
M: 2/4
L: 1/16
K: Am
E2 |\
E2G2 A2GA | GED2 D2DE | D2D2 G2E2 | A6 c2 |\
A2c2 A2d2 | BcdB A2E2 | E2C2 EDEG | E4 z2DE |
E2G2 GAGD | E2D2 E2G2 | A2B2 A2E2 | D6 cB |\
A2G2 E2DE | G2A2 G2AG | EE3 C2A,2 | B,6 :|


